X:1
T:Reed Rows Round
C:Tony Koop / Heifer Zephyr (2026)
S:Public domain or original as noted in notes.md
M:2/4
L:1/8
Q:1/4=96
K:G
H:G pentatonic starter arrangement for Siku/Zampona (G). Refs #1
G A B d | e2 d2 | B d e g | e4 |
d B A G | A B d B | G A B d | G4 |
B d e g | a g e d | B A G A | B4 |
G A B d | e d B A | G2 A2 | G4 |]
